X: 2
T: Memories Of Ballymote
R: polka
M: 2/4
L: 1/8
K: Gmaj
|: d/c/ |BG D>D | Ec- cA/B/ | cE FE | Dd d/e/d/c/ |
BG D2 | Ec cA/B/ | c/B/A/G/ F/D/E/F/ |[1 G2- G :|[2 G G(3B/c/d/ ||
|: ga/g/ fg/f/ | c2- c>d | ef/e/ de/d/ | B2 Bc |
d>e dB | A2- AB/A/ |[1 GA Bc | d2 ef :|[2 Gg f/g/a | g2- g |]


Tune 1560	Setting 1560

